X: 17
T:Wonder
R:Hornpipe
M:4/4
L:1/8
K:G
(3DEF|GdBG FcAF| (3GFG BG D2GF|EGAB cBAG| (3FED d^c ed (3=cBA|
GdBG FcAF| (3GFG BG D2GF|Eedc BADF|AGGF G2:||
AG|FAd^c d2AG|FAd^c dfed| (3B^cd ef gece|d^cde d2=c2|
B3A ^GBe2|A3G FAd2| (3efg fe  (3ded  (3=cBA|G2 (3AGF G2:|

